icons-dark/apps/48/bleachbit.svg

<?xml version="1.0" encoding="UTF-8" standalone="no"?>

<!-- Created with Inkscape (http://www.inkscape.org/) -->
<svg width="48" version="1.1" xmlns="http://www.w3.org/2000/svg" height="48" xmlns:xlink="http://www.w3.org/1999/xlink" xmlns:inkscape="http://www.inkscape.org/namespaces/inkscape">
 <defs id="defs5455">
  <linearGradient inkscape:collect="always" xlink:href="#linearGradient4159" id="linearGradient4491" y1="544.79797" y2="503.798" x2="0" gradientUnits="userSpaceOnUse"/>
  <linearGradient inkscape:collect="always" id="linearGradient4159">
   <stop style="stop-color:#1d1e1e" id="stop4161"/>
   <stop offset="1" style="stop-color:#44484c" id="stop4163"/>
  </linearGradient>
  <linearGradient inkscape:collect="always" xlink:href="#linearGradient4356" id="linearGradient4563" y1="544.79797" y2="503.798" gradientUnits="userSpaceOnUse" x2="0" gradientTransform="matrix(1 0 0 1 -384.57143 -499.798)"/>
  <linearGradient inkscape:collect="always" id="linearGradient4356">
   <stop style="stop-color:#4ea979" id="stop4358"/>
   <stop offset="1" style="stop-color:#5eb085" id="stop4360"/>
  </linearGradient>
  <linearGradient inkscape:collect="always" id="linearGradient4227">
   <stop style="stop-color:#292c2f" id="stop4229"/>
   <stop offset="1" style="stop-opacity:0" id="stop4231"/>
  </linearGradient>
  <linearGradient inkscape:collect="always" xlink:href="#linearGradient4227" id="linearGradient4756" y1="9" x1="10" y2="28.629915" gradientUnits="userSpaceOnUse" x2="44.00001"/>
 </defs>
 <metadata id="metadata5458"/>
 <g inkscape:label="Capa 1" inkscape:groupmode="layer" id="layer1" transform="matrix(1 0 0 1 -384.57143 -499.798)">
  <path style="fill:url(#linearGradient4491)" id="path4561" d="m 411.41108,540.02995 c -2.11789,-2.1343 -3.85081,-3.8909 -3.85081,-3.9022 0,0 1.71094,-1.8006 3.80285,-3.9748 l 3.80177,-3.9533 0,1.9357 c 0.01,1.0646 0,1.946 0,1.9593 0,0 5.58764,-0.01 9.82938,-0.1024 2.07286,0 2.15491,0 2.36689,-0.1024 0.44993,-0.1228 0.87994,-0.4094 1.04287,-0.696 0,-0.1024 0.10003,-0.1229 0.10003,-0.1126 0,0 -0.10999,0.5323 -0.18999,0.7063 -0.0999,0.1638 -0.76995,1.4188 -3.21176,5.8286 -0.32002,0.5733 -0.62997,1.0953 -0.70997,1.1967 -0.37003,0.4504 -0.93992,0.8189 -1.58796,1.0031 -0.20992,0.1024 -0.27,0.1024 -3.64274,0.1024 -1.88794,0 -3.54281,0 -3.67781,0 l -0.24001,0 0.01,1.9398 c 0,1.0667 0,1.9388 -0.01,1.9388 -0.01,0 -1.74884,-1.7463 -3.86576,-3.8817 z"/>
  <path style="fill:url(#linearGradient4563)" id="path4559" d="M 19.693359 4.3691406 C 19.557642 4.3486688 19.423498 4.3507563 19.291016 4.3789062 C 19.051006 4.4301062 18.879171 4.5136156 18.619141 4.7285156 C 18.255171 5.0244156 18.255599 5.0254031 16.761719 7.6582031 C 16.332689 8.4126031 15.270565 10.289478 14.390625 11.830078 C 13.518695 13.369678 12.799798 14.652344 12.798828 14.652344 C 12.797848 14.665644 14.284643 15.563484 16.101562 16.646484 L 16.09375 16.652344 C 17.91165 17.732344 19.425781 18.622047 19.425781 18.623047 C 19.440731 18.624147 20.462346 16.846075 21.697266 14.671875 L 23.943359 10.71875 L 23.683594 10.238281 C 21.994634 7.1919812 20.932061 5.2810031 20.832031 5.1582031 C 20.508796 4.7052031 20.100512 4.4305562 19.693359 4.3691406 z M 38.357422 20.224609 C 38.345412 20.220509 36.851882 21.109872 35.039062 22.201172 C 32.895182 23.490872 31.746094 24.226562 31.746094 24.226562 C 31.748144 24.249063 32.323333 25.275459 33.033203 26.505859 C 33.740243 27.735259 34.75131 29.502528 35.28125 30.423828 L 35.28125 30.427734 L 36.251953 32.109375 L 39.197266 32.099609 C 42.100146 32.089409 42.519639 32.090681 42.849609 31.988281 C 43.616529 31.786681 44.086358 31.148241 43.986328 30.431641 C 43.916288 29.976141 43.856631 29.802366 43.556641 29.259766 C 43.133671 28.493066 38.357422 20.234609 38.357422 20.224609 z M 11.830078 32.367188 L 10.792969 34.193359 C 10.226019 35.197559 9.5353306 36.398775 9.2753906 36.859375 C 9.0153606 37.318975 8.8049781 37.791263 8.7050781 37.914062 C 8.3850581 38.666463 8.4565144 39.311319 8.8964844 39.761719 C 9.0964444 39.966419 9.48505 40.130022 9.875 40.232422 L 9.8828125 40.267578 L 15.398438 40.267578 L 20.794922 40.267578 L 20.785156 36.328125 L 20.775391 32.386719 L 16.302734 32.376953 L 11.830078 32.367188 z " transform="matrix(1 0 0 1 384.57143 499.798)"/>
  <path style="fill:url(#linearGradient4491)" id="path4557" d="m 392.89621,539.15985 c -0.12006,-0.1229 -0.26004,-0.2969 -0.29999,-0.3685 -0.21002,-0.3481 -3.77081,-6.6793 -3.82483,-6.8042 -0.11995,-0.2866 -0.17993,-0.5937 -0.19996,-1.0237 0,-0.4708 0,-0.7882 0.14995,-1.1393 0.10003,-0.1433 0.69004,-1.302 1.87495,-3.4067 0.98993,-1.7535 1.7929,-3.203 1.78586,-3.2204 -0.01,0 -0.74992,-0.4708 -1.6409,-0.9929 -0.89996,-0.5323 -1.61892,-0.9725 -1.60993,-0.9827 0.01,-0.01 0.21002,-0.1024 0.43997,-0.1331 0.23005,-0.1023 1.59294,-0.4401 3.02284,-0.8291 1.42892,-0.389 3.12785,-0.8599 3.77481,-1.036 0.64999,-0.174 1.63689,-0.4504 2.19985,-0.6039 0.56002,-0.1535 1.02598,-0.2764 1.02891,-0.2764 0,0 0,0.174 0.10003,0.389 0.10999,0.4299 1.01093,3.8704 1.31893,5.0404 0.10999,0.4197 0.32001,1.2171 0.45999,1.7638 0.13998,0.5425 0.40998,1.56 0.58992,2.252 0.18003,0.6961 0.32001,1.2642 0.32001,1.2703 -0.01,0.01 -0.73996,-0.4197 -1.62888,-0.9417 -0.89,-0.5221 -1.63192,-0.952 -1.64989,-0.952 0,0 -0.59001,0.9929 -1.27497,2.2049 -0.67998,1.212 -1.9829,3.5091 -2.88882,5.1029 -0.90993,1.5938 -1.68994,2.9891 -1.74493,3.0996 -0.27997,0.5732 -0.32998,1.2048 -0.12992,1.6532 0,0.1024 0.0999,0.174 0.0999,0.174 0,0 -0.11996,-0.1023 -0.23991,-0.2354 z"/>
  <path style="fill:url(#linearGradient4491)" id="path4553" d="m 418.35164,520.23775 c -0.0999,0 -2.35682,-0.6552 -5.0197,-1.3963 -2.66277,-0.737 -4.9267,-1.3676 -5.03171,-1.3972 l -0.19,-0.1024 0.19,-0.1126 c 0.10003,-0.1024 0.72999,-0.4299 1.39395,-0.8189 0.65996,-0.389 1.31298,-0.7678 1.44592,-0.8497 0.13002,-0.1023 0.24998,-0.1535 0.24998,-0.174 0.01,0 -0.29999,-0.5835 -0.67998,-1.2611 -1.47386,-2.6349 -2.79983,-5.0118 -3.89575,-6.9843 -0.62996,-1.1322 -1.20493,-2.1497 -1.27995,-2.2623 -0.34991,-0.5323 -0.91989,-0.9008 -1.38585,-0.9008 l -0.12005,0 0.10003,0 c 0,0 0.18999,-0.1023 0.32997,-0.1023 0.24001,-0.1024 0.25994,-0.1024 4.19876,0 l 3.9528,0.01 0.20992,0.1024 c 0.56002,0.1637 1.04297,0.4504 1.42697,0.8598 l 0.24998,0.2559 1.68182,3.0075 c 0.92996,1.6532 1.73693,3.1057 1.80394,3.2265 0.10003,0.1843 0.13002,0.215 0.18003,0.2048 0,-0.01 0.77991,-0.4402 1.66991,-0.952 0.88991,-0.5119 1.6159,-0.9418 1.6199,-0.9315 0,0 -0.21002,0.8189 -0.47006,1.8118 -0.52993,2.0002 -1.34091,5.0527 -1.6999,6.4101 -0.62996,2.3718 -0.65995,2.4782 -0.6999,2.4833 0,0 -0.11996,0 -0.21999,0 z"/>
  <path inkscape:connector-curvature="0" style="fill:none;stroke:#000000;fill-rule:evenodd" id="path4723" d="M 428.57144,529.798 Z"/>
  <path style="fill:url(#linearGradient4756);opacity:0.2;fill-rule:evenodd" id="path4752" d="M 13.933594 12.640625 C 13.407925 13.572594 12.79952 14.652344 12.798828 14.652344 C 12.797848 14.665644 14.284644 15.563484 16.101562 16.646484 L 16.09375 16.652344 C 17.91165 17.732344 19.425781 18.622047 19.425781 18.623047 C 19.433768 18.623635 20.177 17.315888 20.638672 16.511719 L 13.933594 12.640625 z M 15.025391 18.544922 C 15.022461 18.544922 14.558067 18.668766 13.998047 18.822266 C 13.435087 18.975766 12.446865 19.251781 11.796875 19.425781 C 11.149915 19.601881 9.4523575 20.071936 8.0234375 20.460938 C 6.5935375 20.849938 5.23005 21.188716 5 21.291016 C 4.77005 21.321716 4.5705469 21.413828 4.5605469 21.423828 C 4.5549171 21.430216 5.1373703 21.778403 5.5683594 22.039062 C 5.8255107 22.194596 5.8335361 22.207288 6.1699219 22.40625 C 7.0609019 22.92835 7.8005469 23.398438 7.8105469 23.398438 C 7.8106923 23.398796 7.7739779 23.463272 7.7734375 23.464844 L 14.470703 27.482422 C 14.473849 27.477119 14.537109 27.367187 14.537109 27.367188 C 14.555079 27.367188 15.295547 27.796259 16.185547 28.318359 C 17.074467 28.840359 17.804453 29.269766 17.814453 29.259766 C 17.814453 29.258518 17.760742 29.044486 17.75 29 C 17.707782 28.82674 17.63931 28.543991 17.496094 27.990234 C 17.316154 27.298234 17.044277 26.280781 16.904297 25.738281 C 16.764317 25.191581 16.555302 24.394309 16.445312 23.974609 C 16.137313 22.804609 15.236943 19.363494 15.126953 18.933594 C 15.026923 18.718594 15.025391 18.544922 15.025391 18.544922 z M 32.837891 23.554688 C 32.590811 23.709855 31.746094 24.226562 31.746094 24.226562 C 31.748144 24.249063 32.323333 25.275459 33.033203 26.505859 C 33.740243 27.735259 34.75131 29.502528 35.28125 30.423828 L 35.28125 30.427734 L 36.251953 32.109375 L 39.197266 32.099609 C 42.100146 32.089409 42.519639 32.090681 42.849609 31.988281 C 43.616529 31.786681 44.086358 31.148241 43.986328 30.431641 C 43.954144 30.222336 43.919311 30.077281 43.867188 29.923828 L 32.837891 23.554688 z M 30.59375 28.402344 L 26.791016 32.355469 C 26.174801 32.995924 26.186027 32.986246 25.669922 33.525391 C 25.556875 33.643906 25.429271 33.777744 25.259766 33.955078 L 35.527344 40.117188 C 35.575047 40.117139 35.577915 40.117263 35.623047 40.117188 C 36.35718 40.115966 36.803969 40.111127 37.179688 40.103516 L 37.189453 40.109375 C 37.846049 40.098516 38.113217 40.075727 38.232422 40.017578 C 38.880462 39.833378 39.450283 39.466025 39.820312 39.015625 C 39.900312 38.914225 40.21123 38.391659 40.53125 37.818359 C 42.97306 33.408559 43.642288 32.154034 43.742188 31.990234 C 43.822187 31.816234 43.933594 31.283203 43.933594 31.283203 C 43.933594 31.272903 43.832031 31.294084 43.832031 31.396484 C 43.669101 31.683084 43.238993 31.968997 42.789062 32.091797 C 42.577082 32.194197 42.494735 32.193359 40.421875 32.193359 C 36.180135 32.285759 30.59375 32.296875 30.59375 32.296875 C 30.59375 32.283575 30.60375 31.402491 30.59375 30.337891 L 30.59375 28.402344 z " transform="matrix(1 0 0 1 384.57143 499.798)"/>
 </g>
</svg>

<svg width="48" xmlns="http://www.w3.org/2000/svg" height="48">
 <defs>
  <linearGradient id="a" y1="544.8" y2="503.8" x2="0" gradientUnits="userSpaceOnUse">
   <stop stop-color="#1d1e1e"/>
   <stop offset="1" stop-color="#44484c"/>
  </linearGradient>
  <linearGradient id="b" y1="544.8" y2="503.8" gradientUnits="userSpaceOnUse" x2="0" gradientTransform="translate(-384.57-499.8)">
   <stop stop-color="#4ea979"/>
   <stop offset="1" stop-color="#5eb085"/>
  </linearGradient>
  <linearGradient id="c" y1="9" x1="10" y2="28.63" gradientUnits="userSpaceOnUse" x2="44">
   <stop stop-color="#292c2f"/>
   <stop offset="1" stop-opacity="0"/>
  </linearGradient>
 </defs>
 <g transform="translate(-384.57-499.8)">
  <path fill="url(#a)" d="m411.41 540.03c-2.118-2.134-3.851-3.891-3.851-3.902 0 0 1.711-1.801 3.803-3.975l3.802-3.953v1.936c.01 1.065 0 1.946 0 1.959 0 0 5.588-.01 9.829-.102 2.073 0 2.155 0 2.367-.102.45-.123.88-.409 1.043-.696 0-.102.1-.123.1-.113 0 0-.11.532-.19.706-.1.164-.77 1.419-3.212 5.829-.32.573-.63 1.095-.71 1.197-.37.45-.94.819-1.588 1-.21.102-.27.102-3.643.102-1.888 0-3.543 0-3.678 0h-.24l.01 1.94c0 1.067 0 1.939-.01 1.939-.01 0-1.749-1.746-3.866-3.882z"/>
  <path fill="url(#b)" d="m19.693 4.369c-.136-.02-.27-.018-.402.01-.24.051-.412.135-.672.35-.364.296-.364.297-1.857 2.93-.429.754-1.491 2.631-2.371 4.172-.872 1.54-1.591 2.822-1.592 2.822-.001.013 1.486.911 3.303 1.994l-.008.006c1.818 1.08 3.332 1.97 3.332 1.971.015.001 1.037-1.777 2.271-3.951l2.246-3.953-.26-.48c-1.689-3.046-2.752-4.957-2.852-5.08-.323-.453-.732-.728-1.139-.789m18.664 15.855c-.012-.004-1.506.885-3.318 1.977-2.144 1.29-3.293 2.025-3.293 2.025.002.023.577 1.049 1.287 2.279.707 1.229 1.718 2.997 2.248 3.918v.004l.971 1.682 2.945-.01c2.903-.01 3.322-.009 3.652-.111.767-.202 1.237-.84 1.137-1.557-.07-.456-.13-.629-.43-1.172-.423-.767-5.199-9.03-5.199-9.04m-26.527 12.143l-1.037 1.826c-.567 1-1.258 2.205-1.518 2.666-.26.46-.47.932-.57 1.055-.32.752-.249 1.397.191 1.848.2.205.589.368.979.471l.008.035h10.912l-.01-3.939-.01-3.941-4.473-.01z" transform="translate(384.57 499.8)"/>
  <g fill="url(#a)">
   <path d="m392.9 539.16c-.12-.123-.26-.297-.3-.369-.21-.348-3.771-6.679-3.825-6.804-.12-.287-.18-.594-.2-1.024 0-.471 0-.788.15-1.139.1-.143.69-1.302 1.875-3.407.99-1.754 1.793-3.203 1.786-3.22-.01 0-.75-.471-1.641-.993-.9-.532-1.619-.972-1.61-.983.01-.01.21-.102.44-.133.23-.102 1.593-.44 3.02-.829 1.429-.389 3.128-.86 3.775-1.036.65-.174 1.637-.45 2.2-.604.56-.154 1.026-.276 1.029-.276 0 0 0 .174.1.389.11.43 1.01 3.87 1.319 5.04.11.42.32 1.217.46 1.764.14.543.41 1.56.59 2.252.18.696.32 1.264.32 1.27-.01.01-.74-.42-1.629-.942-.89-.522-1.632-.952-1.65-.952 0 0-.59.993-1.275 2.205-.68 1.212-1.983 3.509-2.889 5.103-.91 1.594-1.69 2.989-1.745 3.1-.28.573-.33 1.205-.13 1.653 0 .102.1.174.1.174 0 0-.12-.102-.24-.235z"/>
   <path d="m418.35 520.24c-.1 0-2.357-.655-5.02-1.396-2.663-.737-4.927-1.368-5.03-1.397l-.19-.102.19-.113c.1-.102.73-.43 1.394-.819.66-.389 1.313-.768 1.446-.85.13-.102.25-.154.25-.174.01 0-.3-.583-.68-1.261-1.474-2.635-2.8-5.01-3.896-6.984-.63-1.132-1.205-2.15-1.28-2.262-.35-.532-.92-.901-1.386-.901h-.02c0 0 .19-.102.33-.102.24-.102.26-.102 4.199 0l3.953.01.21.102c.56.164 1.043.45 1.427.86l.25.256 1.682 3.01c.93 1.653 1.737 3.106 1.804 3.226.1.184.13.215.18.205 0-.01.78-.44 1.67-.952.89-.512 1.616-.942 1.62-.932 0 0-.21.819-.47 1.812-.53 2-1.341 5.05-1.7 6.41-.63 2.372-.66 2.478-.7 2.483 0 0-.12 0-.22 0z"/>
  </g>
  <path opacity=".2" fill="url(#c)" fill-rule="evenodd" d="m13.934 12.641c-.526.932-1.134 2.01-1.135 2.01-.001.013 1.486.911 3.303 1.994l-.008.006c1.818 1.08 3.332 1.97 3.332 1.971.008.001.751-1.307 1.213-2.111zm1.092 5.904c-.003 0-.467.124-1.027.277-.563.154-1.551.43-2.201.604-.647.176-2.345.646-3.773 1.035-1.43.389-2.793.728-3.02.83-.23.031-.429.123-.439.133-.006.006.577.355 1.01.615.257.156.265.168.602.367.891.522 1.631.992 1.641.992 0 0-.037.065-.037.066l6.697 4.02c.003-.005.066-.115.066-.115.018 0 .758.429 1.648.951.889.522 1.619.951 1.629.941 0-.001-.054-.215-.064-.26-.042-.173-.111-.456-.254-1.01-.18-.692-.452-1.709-.592-2.252-.14-.547-.349-1.344-.459-1.764-.308-1.17-1.208-4.611-1.318-5.04-.1-.215-.102-.389-.102-.389m17.813 5.01c-.247.155-1.092.672-1.092.672.002.023.577 1.049 1.287 2.279.707 1.229 1.718 2.997 2.248 3.918v.004l.971 1.682 2.945-.01c2.903-.01 3.322-.009 3.652-.111.767-.202 1.237-.84 1.137-1.557-.032-.209-.067-.354-.119-.508zm-2.244 4.848l-3.803 3.953c-.616.64-.605.631-1.121 1.17-.113.119-.241.252-.41.43l10.268 6.162c.048 0 .051 0 .096 0 .734-.001 1.181-.006 1.557-.014l.01.006c.657-.011.924-.034 1.043-.092.648-.184 1.218-.552 1.588-1 .08-.101.391-.624.711-1.197 2.442-4.41 3.111-5.664 3.211-5.828.08-.174.191-.707.191-.707 0-.01-.102.011-.102.113-.163.287-.593.573-1.043.695-.212.102-.294.102-2.367.102-4.242.092-9.828.104-9.828.104 0-.013.01-.894 0-1.959z" transform="translate(384.57 499.8)"/>
 </g>
</svg>
